icons/circle/48/korora-welcome.svg

<svg xmlns="http://www.w3.org/2000/svg" viewBox="0 0 48 48">
 <defs>
  <linearGradient id="linearGradient3764" x1="1" x2="47" gradientUnits="userSpaceOnUse" gradientTransform="matrix(0,-1,1,0,-1.5e-6,47.999998)">
   <stop style="stop-color:#357ebd;stop-opacity:1"/>
   <stop offset="1" style="stop-color:#428bca;stop-opacity:1"/>
  </linearGradient>
 </defs>
 <g>
  <path d="m 36.31 5 c 5.859 4.062 9.688 10.831 9.688 18.5 c 0 12.426 -10.07 22.5 -22.5 22.5 c -7.669 0 -14.438 -3.828 -18.5 -9.688 c 1.037 1.822 2.306 3.499 3.781 4.969 c 4.085 3.712 9.514 5.969 15.469 5.969 c 12.703 0 23 -10.298 23 -23 c 0 -5.954 -2.256 -11.384 -5.969 -15.469 c -1.469 -1.475 -3.147 -2.744 -4.969 -3.781 z m 4.969 3.781 c 3.854 4.113 6.219 9.637 6.219 15.719 c 0 12.703 -10.297 23 -23 23 c -6.081 0 -11.606 -2.364 -15.719 -6.219 c 4.16 4.144 9.883 6.719 16.219 6.719 c 12.703 0 23 -10.298 23 -23 c 0 -6.335 -2.575 -12.06 -6.719 -16.219 z" style="opacity:0.05"/>
  <path d="m 41.28 8.781 c 3.712 4.085 5.969 9.514 5.969 15.469 c 0 12.703 -10.297 23 -23 23 c -5.954 0 -11.384 -2.256 -15.469 -5.969 c 4.113 3.854 9.637 6.219 15.719 6.219 c 12.703 0 23 -10.298 23 -23 c 0 -6.081 -2.364 -11.606 -6.219 -15.719 z" style="opacity:0.1"/>
  <path d="m 31.25 2.375 c 8.615 3.154 14.75 11.417 14.75 21.13 c 0 12.426 -10.07 22.5 -22.5 22.5 c -9.708 0 -17.971 -6.135 -21.12 -14.75 a 23 23 0 0 0 44.875 -7 a 23 23 0 0 0 -16 -21.875 z" style="opacity:0.2"/>
 </g>
 <g>
  <path d="m 24 1 c 12.703 0 23 10.297 23 23 c 0 12.703 -10.297 23 -23 23 -12.703 0 -23 -10.297 -23 -23 0 -12.703 10.297 -23 23 -23 z" style="fill:url(#linearGradient3764);fill-opacity:1"/>
 </g>
 <g>
  <path d="m 40.03 7.531 c 3.712 4.084 5.969 9.514 5.969 15.469 0 12.703 -10.297 23 -23 23 c -5.954 0 -11.384 -2.256 -15.469 -5.969 4.178 4.291 10.01 6.969 16.469 6.969 c 12.703 0 23 -10.298 23 -23 0 -6.462 -2.677 -12.291 -6.969 -16.469 z" style="opacity:0.1"/>
 </g>
 <path d="m 28.5 13 a 8.5 8.5 0 0 0 -8.5 8.5 8.5 8.5 0 0 0 7.318 8.408 C 27.428 29.455 27.5 28.987 27.5 28.5 c 0 -0.201 -0.026 -0.396 -0.045 -0.592 A 6.5 6.5 0 0 1 22 21.5 6.5 6.5 0 0 1 28.5 15 l 6.5 0 0 6.5 a 6.5 6.5 0 0 1 -4.537 6.189 C 30.487 27.957 30.5 28.23 30.5 28.5 c 0 0.434 -0.036 0.858 -0.096 1.275 A 8.5 8.5 0 0 0 37 21.5 l 0 -8.5 -8.5 0 z m -5.83 7.09 C 22.561 20.542 22.5 21.01 22.5 21.5 c 0 0.2 0.017 0.397 0.037 0.592 A 6.5 6.5 0 0 1 28 28.5 6.5 6.5 0 0 1 21.5 35 l -6.5 0 0 -6.5 a 6.5 6.5 0 0 1 4.541 -6.191 C 19.517 22.04 19.5 21.773 19.5 21.5 c 0 -0.433 0.032 -0.858 0.092 -1.275 A 8.5 8.5 0 0 0 13 28.5 l 0 8.5 8.5 0 A 8.5 8.5 0 0 0 30 28.5 8.5 8.5 0 0 0 22.67 20.09" style="fill:#000;opacity:0.1;fill-opacity:1;stroke:none"/>
 <path d="m 21.67 19.09 c -0.109 0.452 -0.17 0.923 -0.17 1.41 c 0 0.2 0.017 0.397 0.037 0.592 a 6.5 6.5 0 0 1 5.463 6.408 6.5 6.5 0 0 1 -6.5 6.5 l -6.5 0 0 -6.5 a 6.5 6.5 0 0 1 4.541 -6.191 c -0.024 -0.267 -0.041 -0.536 -0.041 -0.809 c 0 -0.433 0.032 -0.858 0.092 -1.275 a 8.5 8.5 0 0 0 -6.592 8.275 l 0 8.5 8.5 0 a 8.5 8.5 0 0 0 8.5 -8.5 8.5 8.5 0 0 0 -7.33 -8.41" style="fill:#f9f9f9;opacity:1;fill-opacity:1;stroke:none"/>
 <path d="m 27.5 12 a 8.5 8.5 0 0 0 -8.5 8.5 8.5 8.5 0 0 0 7.318 8.408 C 26.428 28.455 26.5 27.987 26.5 27.5 c 0 -0.201 -0.026 -0.396 -0.045 -0.592 A 6.5 6.5 0 0 1 21 20.5 6.5 6.5 0 0 1 27.5 14 l 6.5 0 0 6.5 a 6.5 6.5 0 0 1 -4.537 6.189 C 29.487 26.957 29.5 27.23 29.5 27.5 c 0 0.434 -0.036 0.858 -0.096 1.275 A 8.5 8.5 0 0 0 36 20.5 l 0 -8.5 -8.5 0 z" style="fill:#f9f9f9;opacity:1;fill-opacity:1;stroke:none"/>
</svg>

<svg xmlns="http://www.w3.org/2000/svg" viewBox="0 0 48 48">
  <defs>
    <linearGradient id="a" x1="1" x2="47" gradientUnits="userSpaceOnUse" gradientTransform="rotate(-90 24 24)">
      <stop stop-color="#357ebd"/>
      <stop offset="1" stop-color="#428bca"/>
    </linearGradient>
  </defs>
  <path d="M36.31 5c5.859 4.062 9.688 10.831 9.688 18.5 0 12.426-10.07 22.5-22.5 22.5-7.669 0-14.438-3.828-18.5-9.688a23.24 23.24 0 0 0 3.781 4.969 22.923 22.923 0 0 0 15.469 5.969c12.703 0 23-10.298 23-23a22.92 22.92 0 0 0-5.969-15.469A23.216 23.216 0 0 0 36.31 5zm4.969 3.781A22.911 22.911 0 0 1 47.498 24.5c0 12.703-10.297 23-23 23a22.909 22.909 0 0 1-15.719-6.219C12.939 45.425 18.662 48 24.998 48c12.703 0 23-10.298 23-23 0-6.335-2.575-12.06-6.719-16.219z" opacity=".05"/>
  <path d="M41.28 8.781a22.923 22.923 0 0 1 5.969 15.469c0 12.703-10.297 23-23 23A22.92 22.92 0 0 1 8.78 41.281 22.911 22.911 0 0 0 24.499 47.5c12.703 0 23-10.298 23-23A22.909 22.909 0 0 0 41.28 8.781z" opacity=".1"/>
  <path d="M31.25 2.375C39.865 5.529 46 13.792 46 23.505c0 12.426-10.07 22.5-22.5 22.5-9.708 0-17.971-6.135-21.12-14.75a23 23 0 0 0 44.875-7 23 23 0 0 0-16-21.875z" opacity=".2"/>
  <path d="M24 1c12.703 0 23 10.297 23 23S36.703 47 24 47 1 36.703 1 24 11.297 1 24 1z" fill="url(#a)"/>
  <path d="M40.03 7.531A22.922 22.922 0 0 1 45.999 23c0 12.703-10.297 23-23 23A22.92 22.92 0 0 1 7.53 40.031C11.708 44.322 17.54 47 23.999 47c12.703 0 23-10.298 23-23 0-6.462-2.677-12.291-6.969-16.469z" opacity=".1"/>
  <path d="M28.5 13a8.5 8.5 0 0 0-8.5 8.5 8.5 8.5 0 0 0 7.318 8.408c.11-.453.182-.921.182-1.408 0-.201-.026-.396-.045-.592A6.5 6.5 0 0 1 22 21.5a6.5 6.5 0 0 1 6.5-6.5H35v6.5a6.5 6.5 0 0 1-4.537 6.189c.024.268.037.541.037.811 0 .434-.036.858-.096 1.275A8.5 8.5 0 0 0 37 21.5V13h-8.5zm-5.83 7.09c-.109.452-.17.92-.17 1.41 0 .2.017.397.037.592A6.5 6.5 0 0 1 28 28.5a6.5 6.5 0 0 1-6.5 6.5H15v-6.5a6.5 6.5 0 0 1 4.541-6.191 9.053 9.053 0 0 1-.041-.809c0-.433.032-.858.092-1.275A8.5 8.5 0 0 0 13 28.5V37h8.5a8.5 8.5 0 0 0 8.5-8.5 8.5 8.5 0 0 0-7.33-8.41" opacity=".1"/>
  <path d="M21.67 19.09c-.109.452-.17.923-.17 1.41 0 .2.017.397.037.592A6.5 6.5 0 0 1 27 27.5a6.5 6.5 0 0 1-6.5 6.5H14v-6.5a6.5 6.5 0 0 1 4.541-6.191 9.015 9.015 0 0 1-.041-.809c0-.433.032-.858.092-1.275A8.5 8.5 0 0 0 12 27.5V36h8.5a8.5 8.5 0 0 0 8.5-8.5 8.5 8.5 0 0 0-7.33-8.41" fill="#f9f9f9"/>
  <path d="M27.5 12a8.5 8.5 0 0 0-8.5 8.5 8.5 8.5 0 0 0 7.318 8.408c.11-.453.182-.921.182-1.408 0-.201-.026-.396-.045-.592A6.5 6.5 0 0 1 21 20.5a6.5 6.5 0 0 1 6.5-6.5H34v6.5a6.5 6.5 0 0 1-4.537 6.189c.024.268.037.541.037.811 0 .434-.036.858-.096 1.275A8.5 8.5 0 0 0 36 20.5V12h-8.5z" fill="#f9f9f9"/>
</svg>
